X: 28
T: la Scimballe
%R: jig
B: Stewart "A Select Collection of Airs, Jigs, Marches and Reels", ca.1784, p.13 #28
F: http://imslp.org/wiki/A_Select_Collection_of_Airs,_Jigs,_Marches_and_Reels_%28Various%29
Z: 2017 John Chambers <jc:trillian.mit.edu>
M: 6/8
L: 1/8
K: G
D |\
G2F G2A | B2A B2c |\
ded cBA | G2G G2 ::\
d |\
[g3B3D3]z z2d | [g3B3D3]z z2d |
[g3B3D3]d Tc2B | ADD D2D |\
G2F G2A | B2A B2c |\
ded cBA | G2G G2 :|
